X: 6
T: The Pinch Of Snuff
R: reel
M: 4/4
L: 1/8
K: Dmaj
|:f3e dcdB | ADFD EFGB | A3B =cBcd | eA (3Bcd efge |
f3e dcdB | ADFD EFGB | A3B =cBcd | eA (3Bcd efge ||
|:f2 df afdf | f2 df efge | f2 df afdf | eA (3Bcd efge |
f2 df afdf | f2 df efge | f2 df afdf | eA (3Bcd efge ||


Tune 591	Setting 13595

